X: 1
T: Weymouth Quickstep
T: the Weymouth Fleet
O: England
R: jig
Z: 2010 John Chambers <jc:trillian.mit.edu>
B: Charlton Memorial Tunebook
B: Barry Callaghan "Hardcore English" 2007 p.94
M: 6/8
L: 1/8
K: D
(3A/B/c/ \
| d2A AFA | d2e f2g | a2f def | g2e e2f \
| d2A AFA | d2e f2g | a2f ede | f2d d2 :|
|: A \
| d2d cBc | dAF DFA | d2d {d}cBc | d2f d2A \
| d2d cBc | dAF DFA | d2d {d}cBc | d3 d2 :|
|: A \
| B2B dcB | B2A A2F | E2F GFE | F2G A2A \
| B2B dcB | B2A A2F | F2F EDE | D3 D2 :|
|: A \
| d2z d2z | e3- e2e | c2c {d}cBc | d2e f2A \
| d2z d2z | e3- e2e | c2c {d}cBc | d3 d2 :|
